X: 614
T: Huma kaihua
L: 1/8
M: 2/4
K: G
A ED2 [I:setbarnb 1]| 
F G A d | 
A G F E | 
D4 | 
A ED2 | 
F G A d | 
A4 | 
A ED2 | 
D2G A | 
d2A/ G/ A/ d/ | 
A G F E | 
D3D | 
G A F E | 
D4 |]

@@@ Tune index: 9488
